X: 312
T: Come with me now
C: anon.
O: Ireland
B: Francis O'Neill: "The Dance Music of Ireland" (1907) no. 312
R: Double jig
Z: Transcribed by Frank Nordberg - http://www.musicaviva.com
F: http://www.musicaviva.com/abc/tunes/ireland/oneill-1001/oneill-1001-031
2.abc
M: 6/8
L: 1/8
K: D
(A/G/)|FDD F2d|cAA BAG|AFD F2d|cAF GAG|FDD F2d|cAA cde|fge cAG|EDD D2:|
|:A|cBA fed|cAA A2B|cBA fed|cAF G2A|cBA fed|cAA cde|fge cAG|EDDD2:|
W:
W:
W: From Musica Viva - http://www.musicaviva.com
W: the Internet center for free sheet music downloads.


